!!!COM: Bach, Johann Sebastian
!!!OPR: Joh. Seb. Bachs vierstimmige Choralges‰nge
!!!XEN: Four-part Chorales
!!!OTL: 153. O wie selig seid ihr doch, ihr Frommen
!!!SCT: BWV 406
!!!SCA: Thematisch-systematisches Verzeichnis der musikalischen Werke Johann Sebastian Bach: Bach-Werke-Verzeichnis (Schmieder)
!!!YOR: Bach Gesellschaft Edition xxxix
!!!ENC: Steven Rasmussen
!!!CDT: 1685/3//-1750/7/28/
!!!OCY: Deutschland
!!!YEC: Copyright (c) 1994, 2000 Center for Computer Assisted Research in the Humanities
!!!YEM: Rights to all derivative editions reserved
!!!YEN: United States of America
**kern	**silbe	**kern	**kern	**kern
*I:[SOPRANO]	*I:[SOPRANO]	*I:[ALTO]	*I:[TENORE]	*I:[BASSO]
*clefG2	*	*clefG2	*clefGv2	*clefF4
*k[b-]	*	*k[b-]	*k[b-]	*k[b-]
*d:	*	*d:	*d:	*d:
*M4/4	*	*M4/4	*M4/4	*M4/4
=1-	=1-	=1-	=1-	=1-
4dd	O	8fL	4A	8DL
.	.	8gJ	.	8EJ
4a	wie	4a	4d	8FL
.	.	.	.	8GJ
4cc	se-	4e	8cL	8AL
.	.	.	8B-J	8GJ
8ddL	-lig	8fL	4A	8FL
8eeJ	.	8gJ	.	8EJ
=2	=2	=2	=2	=2
4ff	seid	4a	4d	4D
4ee	ihr	8.aL	8dL	4A
.	.	.	8cJ	.
.	.	16gJk	.	.
4dd	doch,	4f	8cL	4B-
.	.	.	8B-J	.
4cc	ihr	4f	8B-L	4F
.	.	.	8AJ	.
=3	=3	=3	=3	=3
2b-	From-	8dL	8AL	4G
.	.	8B-J	8G	.
.	.	4c	8F	4C
.	.	.	8EJ	.
2a;	-men,	2c;	2F;	2F;
=4	=4	=4	=4	=4
4ff	die	4f	8cL	8AL
.	.	.	8AJ	8FJ
4dd	ihr	8fL	8dL	4B-
.	.	8dJ	8B-J	.
4cc	durch	8gL	4G	8EL
.	.	8eJ	.	8CJ
8aL	den	4c	8FL	4F
8b-J	.	.	8GJ	.
=5	=5	=5	=5	=5
4.cc	Tod	4f	4A	8FL
.	.	.	.	8AAJ
.	.	4e	4G	8BB-L
8cc	zu	.	.	8CJ
4a	Gott	8fL	8FL	8DL
.	.	8aJ	8cJ	8CJ
4b-	ge-	8gL	4d	4BB-
.	.	8fJ	.	.
=6	=6	=6	=6	=6
2g	-kom-	8fL	8cL	4C
.	.	16eL	8G	.
.	.	16dJJ	.	.
.	.	4e	8c	4CC
.	.	.	8B-J	.
4f;	-men!	4c;	4A;	4FF;
4a	Ihr	4f	4c	4F
=7	=7	=7	=7	=7
4g	seid	8fL	8.cL	4C
.	.	8eJ	.	.
.	.	.	16B-Jk	.
4f	ent-	8eL	4A	4D
.	.	8dJ	.	.
2e	-gan-	8dL	8B-L	4GG
.	.	16c#L	8E	.
.	.	16BnJJ	.	.
.	.	4c#	8A	4AA
.	.	.	8GJ	.
=8	=8	=8	=8	=8
2d	-gen	2d	2F	2BB-
4a;	al-	8cL	4F;	4F;
.	.	8d;J	.	.
4cc	-ler	4e	4G	4E
=9	=9	=9	=9	=9
4dd	Not,	8fL	4A	8DL
.	.	8gJ	.	8EJ
4a	die	8aL	4d	8FL
.	.	8fJ	.	8DJ
4cc	uns	8gL	4c	8EL
.	.	8eJ	.	8CJ
4a	noch	4f	4c	8FL
.	.	.	.	8EJ
=10	=10	=10	=10	=10
4g	h√§lt	4e	4B-	8DL
.	.	.	.	8C#J
4f	ge-	4d	8AL	8DL
.	.	.	8B-J	8BB-J
2e	-fan-	4d	8B-L	8GGL
.	.	.	8G	8EEJ
.	.	4c#	8E	4AA
.	.	.	16AL	.
.	.	.	16GJJ	.
=11	=11	=11	=11	=11
1d;	-gen.	1A;	1F#;	1DD;
==|!	==|!	==|!	==|!	==|!
*-	*-	*-	*-	*-
!!!RWG: Key is interpreted using the Humdrum key tool.
!!!END: 1994/07/29
!!!EMD: Converted from MuseData to Humdrum Dec 19, 2000, by Andreas Kornstaedt using muse2kern.
!!!EED: Craig Stuart Sapp
!!!EEV: 2024/03/31
!!!ONB: Some non-unicode characters
